X: 23982
T: Lockeport Light, The
R: hornpipe
M: 4/4
K: Edorian
|:ED|EF GA BG FG|ef gf ed Bd|EF GA Bc dB|AF DF (3dcB AF|
EF GA BG FG|ef gf ed Bd|ef (3gag fd BA|(3Bcd AF E2:|
|:(3fga|be (3eee c'a bg|e2 (3efg fd (3Bcd|be (3eee c'a bg|(3efg ag f2 ga|
be (3eee c'a bg|e2 (3efg fd (3Bcd|(3efg ag fd BA|(3Bcd AF E2:|

